X:1
T:Title
%%score { ( 1 3 ) | ( 2 4 ) }
L:1/8
M:6/8
K:Eb
V:1 treble nm="Grand Piano"
V:3 treble 
V:2 bass 
V:4 bass 
V:1
 z3 z2[Q:1/4=92] [GB] | [Ge]>[Ge][Ge] [Fd][Fe][Fc] |[M:7/8] [GB]2 E G3 G | %3
[M:3/4] [DB]>[DF] [DB]3 [Dc] | B>G B3 B |[M:6/8] [Ge]>[Ge][Ge] [_Gd][Ge][Gc] | %6
[M:7/8] [GB]2 E G3 G |[M:3/4] G>F d3 e | c<c [DB]3 [DB] | %9
[M:6/8] [DB][A,DF][B,DG] [CDA][B,DG][A,DF] | E-[EG][_Gc] [=GB]2 [EB] | %11
 [DB][A,DF][B,DG] [CDA][B,DG][B,DF] | [B,EG]2 [EF=A] [DFB]2 [_Ad] | [Ge]>[Ge][Ge] [_Gd][Ge][Gc] | %14
[M:7/8] [GB]2 E G3 G |[M:3/4] [DB]>[DF] [DB]3 [DA] |[M:4/4] [DF]<[DF] E6 | %17
[M:6/8] e-[Ge-][Ge-] eBc | d-[Ad-][Ad-] dcB | c-[Gc-][Gc-] [Gc]BG | A6 | GGG GGG | A2 A A2 A | %23
 =A2 A AA>A | B2 B BcB | e2 [Ge] [_Gd][Ge][Gc] |[M:7/8] [GB]2 E G3 G | %27
[M:3/4] [DB]>[DF] [DB]3 [DA] |[M:5/8] [DF]<[DF] E2 z |] %29
V:2
 z3 z2 [E,B,] | [E,B,]>[E,B,][E,B,] [E,A,][E,A,][E,A,] |[M:7/8] [E,B,]2 [E,G,] [E,B,E]3 [E,B,E] | %3
[M:3/4] [B,,A,]>[B,,A,] [B,,A,]3 [B,,A,] | [E,G,E]>[E,B,E] [E,G,E]3 [E,G,E] | %5
[M:6/8] [E,B,]>[E,B,][E,B,] [E,=A,][E,A,][E,A,] |[M:7/8] [E,B,]2 [E,G,] [E,B,E]3 [=E,B,_D] | %7
[M:3/4] [F,B,D]>[F,B,D] [F,B,F]3 [F,=A,G] | [F,=A,E]<[F,A,E] [B,,B,]3 [B,,B,] | %9
[M:6/8] [B,,A,]B,,B,, B,,B,,B,, | z B,[E,=A,] [E,B,]2 [E,G,] | [B,,A,]B,,B,, B,,B,,B,, | %12
 E,2 C, B,,2 [B,,B,] | [E,B,]>[E,B,][E,B,] [E,=A,][E,A,][E,A,] | %14
[M:7/8] [E,B,]2 [E,G,] [E,B,E]3 [E,B,E] |[M:3/4] [B,,A,]>[B,,A,] [B,,A,]3 [B,,F,] | %16
[M:4/4] [B,,A,]<[B,,A,] [E,G,]6 |[M:6/8] [E,B,][E,B,][E,B,] .[E,B,]3 | %18
 [F,B,][F,B,][F,B,] .[F,B,]3 | [E,E][E,E][E,E] .[E,E]2 [E,B,E] | [F,B,D]2 [F,B,] .[F,B,]3 | %21
 [E,B,E][E,B,E][E,B,E] [=E,B,_D][E,B,D][E,B,D] | [F,B,D]2 [F,B,D] [F,B,D]2 [F,B,D] | %23
 [_G,CE]2 [G,CE] [G,CE][G,CE]>[G,CE] | [G,B,E]2 [G,B,E] [F,A,D]2 [F,A,D] | %25
 [E,G,E]2 [E,B,] [E,=A,][E,A,][E,A,] |[M:7/8] [E,B,]2 [E,G,] [E,B,E]3 [E,B,E] | %27
[M:3/4] [B,,A,]>[B,,A,] [B,,A,]3 [B,,F,] |[M:5/8] [B,,A,]<[B,,A,] [E,G,]2 z |] %29
V:3
 x6 | x6 |[M:7/8] x7 |[M:3/4] x6 | x6 |[M:6/8] x6 |[M:7/8] x7 |[M:3/4] x6 | x6 |[M:6/8] x6 | %10
 .G,3 z3 | x6 | x6 | x6 |[M:7/8] x7 |[M:3/4] x6 |[M:4/4] x8 |[M:6/8] .G3 .G3 | .A3 .A3 | .G3 z3 | %20
 z2 D .D3 | x6 | x6 | x6 | x6 | x6 |[M:7/8] x7 |[M:3/4] x6 |[M:5/8] x5 |] %29
V:4
 x6 | x6 |[M:7/8] x7 |[M:3/4] x6 | x6 |[M:6/8] x6 |[M:7/8] x7 |[M:3/4] x6 | x6 |[M:6/8] x6 | %10
 .E,3 z3 | x6 | x6 | x6 |[M:7/8] x7 |[M:3/4] x6 |[M:4/4] x8 |[M:6/8] x6 | x6 | x6 | x6 | x6 | x6 | %23
 x6 | x6 | x6 |[M:7/8] x7 |[M:3/4] x6 |[M:5/8] x5 |] %29

